icon-themes/sifr_svg/cmd/lc_deletepage.svg

<svg xmlns="http://www.w3.org/2000/svg" viewBox="0 0 24 24">
  <path
     style="fill:#555753"
     d="M 1,4 V 20 H 13 V 18 H 3 V 6 h 18 v 6 h 2 V 4 Z m 4,4 v 3 H 18 V 8 Z m 0,4 v 4 h 6 v -4 z m 10.1875,1 C 14.524802,13 14,13.548988 14,14.21875 v 6.5625 C 14,21.451009 14.524802,22 15.1875,22 H 22 c 0.662699,0 1,-0.548991 1,-1.21875 v -6.5625 C 23,13.548988 22.662714,13 22,13 Z M 15,14 h 1 L 18.5,16.5 21,14 h 1 v 1 l -2.5,2.5 2.5,2.339844 v 1 H 21 L 18.5,18.5 16,21 H 15 V 20 L 17.5,17.5 15,15 Z"
     />
</svg>

<svg xmlns="http://www.w3.org/2000/svg" viewBox="0 0 24 24">
  <path
     style="fill:#555753"
     d="M 1 4 L 1 20 L 13 20 L 13 10 L 21 10 L 21 12 L 23 12 L 23 4 L 1 4 z M 3 6 L 21 6 L 21 8 L 3 8 L 3 6 z M 3 10 L 11 10 L 11 18 L 3 18 L 3 10 z M 15.1875 13 C 14.524802 13 14 13.548988 14 14.21875 L 14 20.78125 C 14 21.451009 14.524802 22 15.1875 22 L 22 22 C 22.662699 22 23 21.451009 23 20.78125 L 23 14.21875 C 23 13.548988 22.662714 13 22 13 L 15.1875 13 z M 15 14 L 16 14 L 18.5 16.5 L 21 14 L 22 14 L 22 15 L 19.5 17.5 L 22 19.839844 L 22 20.839844 L 21 20.839844 L 18.5 18.5 L 16 21 L 15 21 L 15 20 L 17.5 17.5 L 15 15 L 15 14 z "
     />
</svg>
